flaticon/symbols/tin.svg

<svg xmlns="http://www.w3.org/2000/svg" width="32" height="32" viewBox="0 0 24 24">
    <path d="M 15.492188 12 C 20.074219 10.65625 23.515625 6.734375 23.992188 1.835938 C 24.035156 1.425781 23.894531 1.011719 23.613281 0.703125 C 23.328125 0.382812 22.917969 0.203125 22.488281 0.203125 C 21.714844 0.203125 21.070312 0.789062 20.992188 1.570312 C 20.535156 6.085938 16.671875 9.488281 12 9.488281 C 7.328125 9.488281 3.464844 6.085938 3.007812 1.570312 C 2.929688 0.789062 2.285156 0.203125 1.511719 0.203125 C 1.082031 0.203125 0.671875 0.382812 0.386719 0.703125 C 0.105469 1.011719 -0.0351562 1.425781 0.0078125 1.835938 C 0.484375 6.734375 3.925781 10.65625 8.507812 12 C 3.925781 13.34375 0.484375 17.265625 0.0078125 22.164062 C -0.0351562 22.574219 0.105469 22.988281 0.386719 23.296875 C 0.671875 23.617188 1.082031 23.796875 1.511719 23.796875 C 2.285156 23.796875 2.929688 23.210938 3.007812 22.429688 C 3.464844 17.914062 7.328125 14.511719 12 14.511719 C 16.671875 14.511719 20.535156 17.914062 20.992188 22.429688 C 21.070312 23.210938 21.714844 23.796875 22.488281 23.796875 C 22.917969 23.796875 23.328125 23.617188 23.613281 23.296875 C 23.894531 22.988281 24.03125 22.574219 23.992188 22.164062 C 23.515625 17.265625 20.074219 13.34375 15.492188 12 Z M 1.007812 1.738281 C 0.992188 1.605469 1.039062 1.476562 1.128906 1.375 C 1.226562 1.269531 1.367188 1.207031 1.511719 1.207031 C 1.765625 1.207031 1.980469 1.40625 2.007812 1.671875 C 2.515625 6.703125 6.8125 10.492188 12 10.492188 C 17.1875 10.492188 21.484375 6.699219 21.992188 1.671875 C 22.019531 1.40625 22.234375 1.207031 22.488281 1.207031 C 22.632812 1.207031 22.773438 1.269531 22.871094 1.375 C 22.964844 1.476562 23.007812 1.605469 22.992188 1.738281 C 22.449219 7.300781 17.722656 11.496094 12 11.496094 C 6.277344 11.496094 1.550781 7.300781 1.007812 1.738281 Z M 22.871094 22.625 C 22.773438 22.730469 22.632812 22.792969 22.488281 22.792969 C 22.234375 22.792969 22.019531 22.59375 21.992188 22.328125 C 21.484375 17.296875 17.1875 13.507812 12 13.507812 C 6.8125 13.507812 2.515625 17.300781 2.007812 22.328125 C 1.980469 22.59375 1.765625 22.792969 1.511719 22.792969 C 1.367188 22.792969 1.226562 22.730469 1.128906 22.625 C 1.035156 22.523438 0.992188 22.394531 1.007812 22.261719 C 1.550781 16.699219 6.277344 12.503906 12 12.503906 C 17.722656 12.503906 22.449219 16.699219 22.992188 22.261719 C 23.007812 22.394531 22.960938 22.523438 22.871094 22.625 Z M 22.871094 22.625"/>
</svg>

<svg xmlns="http://www.w3.org/2000/svg" width="32" height="32" viewBox="0 0 24 24">
    <path d="M15.492 12c4.582-1.344 8.024-5.266 8.5-10.164a1.464 1.464 0 0 0-.379-1.133 1.505 1.505 0 0 0-2.621.867c-.457 4.516-4.32 7.918-8.992 7.918-4.672 0-8.535-3.402-8.992-7.918A1.505 1.505 0 0 0 .387.703a1.464 1.464 0 0 0-.38 1.133c.477 4.898 3.919 8.82 8.5 10.164-4.581 1.344-8.023 5.266-8.5 10.164-.042.41.098.824.38 1.133a1.505 1.505 0 0 0 2.621-.867c.457-4.516 4.32-7.918 8.992-7.918 4.672 0 8.535 3.402 8.992 7.918a1.505 1.505 0 0 0 2.621.867c.282-.309.418-.723.38-1.133-.477-4.898-3.919-8.82-8.5-10.164zM1.008 1.738a.465.465 0 0 1 .12-.363.526.526 0 0 1 .384-.168c.254 0 .468.2.496.465.508 5.031 4.805 8.82 9.992 8.82 5.188 0 9.484-3.793 9.992-8.82a.507.507 0 0 1 .496-.465c.145 0 .285.063.383.168.094.102.137.23.121.363-.543 5.563-5.27 9.758-10.992 9.758-5.723 0-10.45-4.195-10.992-9.758zM22.87 22.625a.526.526 0 0 1-.383.168.507.507 0 0 1-.496-.465c-.508-5.031-4.805-8.82-9.992-8.82-5.188 0-9.484 3.793-9.992 8.82a.507.507 0 0 1-.496.465.526.526 0 0 1-.383-.168.451.451 0 0 1-.121-.363c.543-5.563 5.27-9.758 10.992-9.758 5.723 0 10.45 4.195 10.992 9.758a.465.465 0 0 1-.12.363zm0 0"/>
</svg>
